_includes/icons/color-questions.svg

<svg fill="#666" height="50" viewBox="0 0 48 48" width="50" xmlns="http://www.w3.org/2000/svg"><path d="m36 44h-28v-36h20l8 8z" fill="#42a5f5"/><path d="m40 40h-28v-36h20l8 8z" fill="#90caf9"/><path d="m38.5 13h-7.5v-7.5z" fill="#e1f5fe"/><path d="m24.5 28.300781c0-4.699218 3.601563-4.402343 3.601563-7.199218 0-.703125-.203125-2.101563-2-2.101563-2 0-2.101563 1.601563-2.101563 2h-2.699219c0-.699219.300782-4.199219 4.800782-4.199219 4.597656 0 4.699218 3.597657 4.699218 4.300782 0 3.5-3.800781 4-3.800781 7.296875h-2.5zm-.199219 3.5c0-.199218 0-1.5 1.5-1.5 1.398438 0 1.5 1.300782 1.5 1.5 0 .398438-.199218 1.398438-1.5 1.398438-1.300781 0-1.5-1-1.5-1.398438z" fill="#1976d2"/></svg>

<svg xmlns="http://www.w3.org/2000/svg" viewBox="0 0 48 48" width="50" height="50" fill="#666"><path d="M 36 44 L 8 44 L 8 8 L 28 8 L 36 16 Z" fill="#42a5f5"/><path d="M 40 40 L 12 40 L 12 4 L 32 4 L 40 12 Z" fill="#90caf9"/><path d="M 38.5 13 L 31 13 L 31 5.5 Z" fill="#e1f5fe"/><path d="M 24.5 28.300781 C 24.5 23.601563 28.101563 23.898438 28.101563 21.101563 C 28.101563 20.398438 27.898438 19 26.101563 19 C 24.101563 19 24 20.601563 24 21 L 21.300781 21 C 21.300781 20.300781 21.601563 16.800781 26.101563 16.800781 C 30.699219 16.800781 30.800781 20.398438 30.800781 21.101563 C 30.800781 24.601563 27 25.101563 27 28.398438 L 24.5 28.398438 Z M 24.300781 31.800781 C 24.300781 31.601563 24.300781 30.300781 25.800781 30.300781 C 27.199219 30.300781 27.300781 31.601563 27.300781 31.800781 C 27.300781 32.199219 27.101563 33.199219 25.800781 33.199219 C 24.5 33.199219 24.300781 32.199219 24.300781 31.800781 Z" fill="#1976d2"/></svg>
